webapp/src/assets/icons/cloudproviders/aws/architecture_services/redshift.svg

<?xml version="1.0" encoding="UTF-8"?>
<svg width="40px" height="40px" viewBox="0 0 40 40" version="1.1" xmlns="http://www.w3.org/2000/svg" xmlns:xlink="http://www.w3.org/1999/xlink">
    <title>Icon-Architecture/32/Arch_Amazon-Redshift_32</title>
    <g id="Icon-Architecture/32/Arch_Amazon-Redshift_32" stroke="none" stroke-width="1" fill="none" fill-rule="evenodd">
        <path d="M25.912,17.5868263 C25.384,17.5868263 24.953,17.1576846 24.953,16.6297405 C24.953,16.1007984 25.384,15.6716567 25.912,15.6716567 C26.441,15.6716567 26.872,16.1007984 26.872,16.6297405 C26.872,17.1576846 26.441,17.5868263 25.912,17.5868263 M23.479,23.4131737 C22.951,23.4131737 22.52,22.9840319 22.52,22.4550898 C22.52,21.9271457 22.951,21.498004 23.479,21.498004 C24.009,21.498004 24.439,21.9271457 24.439,22.4550898 C24.439,22.9840319 24.009,23.4131737 23.479,23.4131737 M17.641,22.4421158 C17.113,22.4421158 16.683,22.0129741 16.683,21.4840319 C16.683,20.9560878 17.113,20.5269461 17.641,20.5269461 C18.171,20.5269461 18.601,20.9560878 18.601,21.4840319 C18.601,22.0129741 18.171,22.4421158 17.641,22.4421158 M15.21,27.7824351 C14.681,27.7824351 14.25,27.3532934 14.25,26.8253493 C14.25,26.2974052 14.681,25.8672655 15.21,25.8672655 C15.738,25.8672655 16.169,26.2974052 16.169,26.8253493 C16.169,27.3532934 15.738,27.7824351 15.21,27.7824351 M25.912,14.6736527 C24.832,14.6736527 23.953,15.5508982 23.953,16.6297405 C23.953,17.2904192 24.285,17.8732535 24.79,18.2275449 L23.877,20.5399202 C23.748,20.5139721 23.615,20.5 23.479,20.5 C22.62,20.5 21.897,21.0588822 21.634,21.8283433 L19.589,21.3642715 C19.525,20.3423154 18.682,19.5289421 17.641,19.5289421 C16.561,19.5289421 15.683,20.4061876 15.683,21.4840319 C15.683,21.988024 15.88,22.4441118 16.194,22.7904192 L15.302,24.8792415 C15.27,24.8772455 15.241,24.8692615 15.21,24.8692615 C14.129,24.8692615 13.25,25.746507 13.25,26.8253493 C13.25,27.9031936 14.129,28.7804391 15.21,28.7804391 C16.29,28.7804391 17.169,27.9031936 17.169,26.8253493 C17.169,26.1327345 16.805,25.5279441 16.261,25.1796407 L17.048,23.3383234 C17.236,23.3982036 17.433,23.4401198 17.641,23.4401198 C18.412,23.4401198 19.073,22.99002 19.393,22.3433134 L21.558,22.8343313 C21.736,23.7315369 22.529,24.4111776 23.479,24.4111776 C24.56,24.4111776 25.439,23.5339321 25.439,22.4550898 C25.439,21.8722555 25.178,21.3542914 24.77,20.996008 L25.729,18.5658683 C25.791,18.5718563 25.85,18.5848303 25.912,18.5848303 C26.993,18.5848303 27.872,17.7075848 27.872,16.6297405 C27.872,15.5508982 26.993,14.6736527 25.912,14.6736527 M20.5,33.001996 C15.635,33.001996 12,31.5419162 12,30.2365269 L12,11.5898204 C13.663,12.9281437 17.153,13.6387226 20.5,13.6387226 C23.847,13.6387226 27.337,12.9281437 29,11.5898204 L29,30.2365269 C29,31.5419162 25.365,33.001996 20.5,33.001996 M20.5,6.99800399 C25.509,6.99800399 29,8.48403194 29,9.81936128 C29,11.1536926 25.509,12.6407186 20.5,12.6407186 C15.491,12.6407186 12,11.1536926 12,9.81936128 C12,8.48403194 15.491,6.99800399 20.5,6.99800399 M30,9.81936128 C30,7.33832335 25.105,6 20.5,6 C15.894,6 11,7.33832335 11,9.81936128 C11,9.82335329 11.002,9.82734531 11.002,9.83133733 L11,9.83133733 L11,30.2365269 C11,32.6806387 15.894,34 20.5,34 C25.105,34 30,32.6806387 30,30.2365269 L30,9.83133733 L29.998,9.83133733 C29.998,9.82734531 30,9.82335329 30,9.81936128" id="Amazon-Redshift_Icon_32_Squid" fill="#8C4FFF"></path>
    </g>
</svg>

<svg width="40" height="40" xmlns="http://www.w3.org/2000/svg"><path d="M25.912 17.587a.96.96 0 0 1-.959-.957.96.96 0 0 1 1.919 0 .96.96 0 0 1-.96.957m-2.433 5.826a.96.96 0 0 1-.959-.958.96.96 0 0 1 1.919 0 .96.96 0 0 1-.96.958m-5.838-.97a.959.959 0 1 1 .001-1.913.959.959 0 0 1-.001 1.912m-2.431 5.34a.96.96 0 0 1-.96-.957.96.96 0 0 1 1.919 0 .96.96 0 0 1-.959.957m10.702-13.108a1.96 1.96 0 0 0-1.959 1.956c0 .66.332 1.243.837 1.598l-.913 2.312a1.953 1.953 0 0 0-2.243 1.288l-2.045-.464a1.954 1.954 0 0 0-3.906.12c0 .504.197.96.511 1.306l-.892 2.09c-.032-.003-.061-.01-.092-.01a1.96 1.96 0 0 0-1.96 1.955 1.96 1.96 0 0 0 3.919 0c0-.692-.364-1.297-.908-1.645l.787-1.842c.188.06.385.102.593.102.771 0 1.432-.45 1.752-1.097l2.165.491a1.96 1.96 0 0 0 3.881-.38c0-.582-.261-1.1-.669-1.458l.959-2.43c.062.006.121.019.183.019a1.96 1.96 0 0 0 1.96-1.955 1.96 1.96 0 0 0-1.96-1.956M20.5 33.002c-4.865 0-8.5-1.46-8.5-2.765V11.59c1.663 1.338 5.153 2.049 8.5 2.049 3.347 0 6.837-.71 8.5-2.05v18.648c0 1.305-3.635 2.765-8.5 2.765m0-26.004c5.009 0 8.5 1.486 8.5 2.821 0 1.335-3.491 2.822-8.5 2.822S12 11.154 12 9.819s3.491-2.821 8.5-2.821M30 9.819C30 7.34 25.105 6 20.5 6 15.894 6 11 7.338 11 9.82l.002.011H11v20.406C11 32.68 15.894 34 20.5 34c4.605 0 9.5-1.32 9.5-3.763V9.83h-.002L30 9.82" fill="#8C4FFF" fill-rule="evenodd"/></svg>
